X:435
T:Peelers Jacket, The
M:C|
L:1/8
Q:120
R:Reel (Key of G)
K:G
"G"G2BG DGBG | "D"FGAB c2Bc | "G"dggf d2eg | "D"fdcA BGAF |
"G"G2BG DGBG | "D"FGAB c2Bc | "G"dggf d2eg | "D"fdcA "G"BG G2 :|:
"G"gagf d2ef | g2ga bgaf | gagf d2eg | "D"fdcA "G"BGG2 |
gagf d2ef | g2ga  bgaf | gbaf gdeg |1 "D"fdcA "G"BGG2 :|2 "D"fdcA "G"BG"D"AF |]
